X:1
T:Title
%%score 1 2 3
L:1/8
Q:1/4=165
M:4/4
K:C
V:1 treble nm="Grand Piano"
V:2 bass nm="Grand Piano, Melody"
V:3 bass nm="Grand Piano"
V:1
 c4 c2 A2 | G2 G2 A2 c2 | d6 dB | c2 c2 d2 ec | d6 z2 | z8 | z8 | z4 z2 c2 | f2 d2 d2 d2 | %9
 e2 c2 c2 d2 | e3 d c2 g2 | f3 e d4 | e6 z2 | z8 | z8 | z4 z2 z/ c3/2- | c<f- f<d- d<d- d<d- | %17
 d<e- e<c- c<c- c<d- | d<e- e>d- d<c- c<g- | g<f- f>e- e<d- d2- | d<e- e4- e/ z/ z |] %21
V:2
 C4 G,2 F,2 | E,2 G,2[K:treble] C2 E2 | D6 D2 | E2 E2 D2 C2 | D6 z2 | z4 z2 C2 | F2 D2 D2 D2 | %7
 E2 C2 C2 C2 | D2[K:bass] B,2 G,2 A,B, | C6[K:treble] D2 | G3 F E2 ED | C4 B,4 | C6 z2 | %13
 z4 z2 z/ C3/2- | C<F- F<D- D<D- D<D- | D<E- E<C- C<C- C<C- | C<D- D<[K:bass]B,- B,<G,- G,/A,B,/- | %17
 B,<[K:treble]C- C4- C<D- | D<G- G>F- F<E- E/ED/- | D<C- C2- C<B,- B,2- | B,<C- C4- C/ z/ z |] %21
V:3
 C,4 C,2 D,2 | E,2 C,2 F,2 C,2 | G,6 G,2 | C2 C2 B,2 A,2 | G,6 G,2 | C2 A,2 A,2 A,2 | %6
 D2 G,2 G,2 G,2 | C,2 C,2 C,2 C,2 | D,4 G,4 | C,6 G,2 | C6 E,2 | F,4 G,4 | C,6 z/ G,3/2- | %13
 G,<C- C<A,- A,<A,- A,<A,- | A,<D- D<G,- G,<G,- G,<G,- | G,<C,- C,<C,- C,<C,- C,<C,- | %16
 C,<D,- D,2- D,<G,- G,2- | G,<C,- C,4- C,<G,- | G,<C- C4- C<E,- | E,<F,- F,2- F,<G,- G,2- | %20
 G,<C,- C,4- C,/ z/ z |] %21

